X:10
T:Merrily Kiss the Quaker's Wife
R:48-bar jig
M:6/8
K:G
D|"G"GAB D2B|"C"c2A "G"BGE|"G"GAB DEG|"Am"A3-"D7"AGE|
"G"GAB D2B|"C"c2A "G"BGE|"G"GAB "D"D2E| "G"G3-G2:|
A|:"G"BGG AGG|"G"BGG AGE|"G"GAB DEG|"D"A3-AGA|
"G"BGG AGG|"G"BGG AGE|"G"GAB "D7"D2E| "D"G3-G2:|
d|:"G"~g3 "D"aga|"G"bge dBd|"G"~g3 gab|"Am"~a3-a2a|
"C"g2g "D"fgf|"C"efe "G"dBA|"G"GAB "D"D2E| "G"G3-G2:|
